X: 10683
M: 6/8
L: 1/8
K: G
d |\
d>ed B2G | A2F EFG | GAB dcB | AcB ABc |\
d>ed B2G | G2E C2e | G2d D2F | G3 G2 H|]
g |\
(fg)e cde | (=f/e/f/g/a/f/) (B/c/d/e/f/d/) | (ag)e (g=fd) | (=fe)c d2g |\
(^fg)e cde | (=f/e/f/g/a/f/) (B/c/d/e/f/d/) | (ag)e (g=fd) | cce "^D.C."c2 |]


